X:1
T: Nirvana
R: Polska
C: efter Pers Erik
S: Utlärd av Kerstin Ivares
Z: Karin Arén
M: 3/4
L: 1/8
K: D
|: AB/c/ de f>a | a<f ge f2 | d2 (5d/c/d/c/A/ B>G | G<B A4 | 
A2 de ^f>a | a<^f ge f2 | a>a g/a/g/e/ {e}f>d | e<c d4 :|: 
A2 fd A>F | G2 BA/G/ (A2 | A2) EF G>A | BA/G/ A4 | 
A2 fd A>F | G2 BA/G/ (A2 | A)B/c/ de f>d | e<c d4 :|

